contributed-vectors/naver.svg

<svg xmlns="http://www.w3.org/2000/svg" xml:space="preserve" style="fill-rule:evenodd;clip-rule:evenodd;stroke-linejoin:round;stroke-miterlimit:2" viewBox="0 0 192 192"><path d="M164.5 21.5c0-5.519-4.481-10-10-10h-133c-5.519 0-10 4.481-10 10v133c0 5.519 4.481 10 10 10h133c5.519 0 10-4.481 10-10v-133Z" style="fill:#98dc9a" transform="translate(8 8)"/><path d="M107.913 62.876h21.674v66.284h-20.65l-24.83-35.258v35.258H62.463V62.876h20.65l24.8 35.216V62.876Z" style="fill:#fff" transform="translate(27.002 27) scale(.7188)"/></svg>

<?xml version="1.0" encoding="UTF-8" standalone="no"?>
<!DOCTYPE svg PUBLIC "-//W3C//DTD SVG 1.1//EN" "http://www.w3.org/Graphics/SVG/1.1/DTD/svg11.dtd">
<svg width="100%" height="100%" viewBox="0 0 192 192" version="1.1" xmlns="http://www.w3.org/2000/svg" xmlns:xlink="http://www.w3.org/1999/xlink" xml:space="preserve" xmlns:serif="http://www.serif.com/" style="fill-rule:evenodd;clip-rule:evenodd;stroke-linejoin:round;stroke-miterlimit:2;">
    <g id="Layer1">
        <g transform="matrix(1,0,0,1,8,8)">
            <path d="M164.5,21.5C164.5,15.981 160.019,11.5 154.5,11.5L21.5,11.5C15.981,11.5 11.5,15.981 11.5,21.5L11.5,154.5C11.5,160.019 15.981,164.5 21.5,164.5L154.5,164.5C160.019,164.5 164.5,160.019 164.5,154.5L164.5,21.5Z" style="fill:rgb(152,220,154);"/>
        </g>
        <g transform="matrix(0.718802,0,0,0.718802,27.002,27.0001)">
            <path d="M107.913,62.876L129.587,62.876L129.587,129.16L108.937,129.16L84.107,93.902L84.107,129.16L62.463,129.16L62.463,62.876L83.113,62.876L107.913,98.092L107.913,62.876Z" style="fill:white;"/>
        </g>
    </g>
</svg>
